!!!COM: Beethoven, Ludwig van
!!!CDT: 1770///-1827///
!!!OTL: Piano Sonata no. 8 in C minor
!!!OTP: path&eacute;tique
!!!OMD: Adagio cantabile
!!!OPS: 13
!!!OMV: 2
**kern	**dynam	**kern	**dynam
*staff2	*staff2	*staff1	*staff1
*Ipiano	*Ipiano	*Ipiano	*Ipiano
*clefF4	*clefF4	*clefF4	*clefF4
*k[b-e-a-d-]	*k[b-e-a-d-]	*k[b-e-a-d-]	*k[b-e-a-d-]
*A-:	*A-:	*A-:	*A-:
*M2/4	*M2/4	*M2/4	*M2/4
*MM40	*MM40	*MM40	*MM40
=1-	=1-	=1-	=1-
*	*	*^	*
(4AA-/	p	(4c/	16A-\LL	p
.	.	.	16E-\	.
.	.	.	16A-\	.
.	.	.	16E-\JJ	.
4D-\	.	4B-/	16G\LL	.
.	.	.	16E-\	.
.	.	.	16G\	.
.	.	.	16E-\JJ	.
=2	=2	=2	=2	=2
4C/	.	4.e-/	16A-\LL	.
.	.	.	16E-\	.
.	.	.	16A-\	.
.	.	.	16E-\JJ	.
4GG/)	.	.	16B-\LL	.
.	.	.	16E-\	.
.	.	8d-/)	16B-\	.
.	.	.	16E-\JJ	.
=3	=3	=3	=3	=3
(8AA-/L	.	(8c/L	16A-\LL	.
.	.	.	16E-\	.
8GG/	.	8e-/	16B-\	.
.	.	.	16E-\JJ	.
8FF/	.	8a-/	16c\LL	.
.	.	.	16A-\	.
8F/J)	.	8b-/J)	16dn\	.
.	.	.	16A-\JJ	.
=4	=4	=4	=4	=4
(4E-\	.	(4.e-/	16G\LL	.
.	.	.	16B-\	.
.	.	.	16G\	.
.	.	.	16B-\JJ	.
4EE-/	.	.	16G\LL	.
.	.	.	16B-\	.
.	.	8en/	16G\	.
.	.	.	16B-\JJ	.
=5	=5	=5	=5	=5
4DD-/	.	4f/)	16G\LL	.
.	.	.	16B-\	.
.	.	.	16G\	.
.	.	.	16B-\JJ	.
4D-\)	.	(8.B-/L	16G\LL	.
.	.	.	16E-\	.
.	.	.	16G\	.
.	.	32c/LL	16E-\JJ	.
.	.	32d-/JJJ)	.	.
=6	=6	=6	=6	=6
(4C/	.	(4e-/	16A-\LL	.
.	.	.	16E-\	.
.	.	.	16A-\	.
.	.	.	16E-\JJ	.
4FF/	.	4An/	16E-\LL	.
.	.	.	16C\	.
.	.	.	16E-\	.
.	.	.	16C\JJ	.
=7	=7	=7	=7	=7
4BBB-/	.	4d-/)	16F\LL	.
.	.	.	16D-\	.
.	.	.	16F\	.
.	.	.	16D-\JJ	.
4EE-/)	.	(16c/LL	16D-\LL	.
.	.	16B-/	16D-\	.
.	.	16A-/	16D-\	.
.	.	16G/JJ)	16D-\JJ	.
=8	=8	=8	=8	=8
8AAA-/L	.	4G/ (4B-/	16D-\LL	.
.	.	.	16E-\	.
8AA-/J	.	.	16D-\	.
.	.	.	16E-\JJ	.
8AAA-/	.	8A-/)	24C'\LL	.
.	.	.	24E-'\	.
.	.	.	24A-'\JJ	.
*	*	*v	*v	*
*	*	*clefG2	*clefG2
*	*	*^	*
8r	.	24c'/LL	8r	.
.	.	24e-'/	.	.
.	.	24a-'/JJ	.	.
=9	=9	=9	=9	=9
*^	*	*	*	*
16A-/LL	(4AA-\	.	(4cc/	16c\LL	.
16E-/	.	.	.	16e-\	.
16A-/	.	.	.	16c\	.
16E-/JJ	.	.	.	16e-\JJ	.
16G/LL	4D-\	.	4b-/	16B-\LL	.
16E-/	.	.	.	16e-\	.
16G/	.	.	.	16B-\	.
16E-/JJ	.	.	.	16e-\JJ	.
=10	=10	=10	=10	=10	=10
16A-/LL	4C\	.	4.ee-/	16e-\LL	.
16E-/	.	.	.	16a-\	.
16A-/	.	.	.	16e-\	.
16E-/JJ	.	.	.	16a-\JJ	.
16G/LL	4GG\)	.	.	16e-\LL	.
16E-/	.	.	.	16b-\	.
16G/	.	.	8dd-/)	16e-\	.
16E-/JJ	.	.	.	16b-\JJ	.
=11	=11	=11	=11	=11	=11
16A-/LL	(8AA-\L	.	(8cc/L	16e-\LL	.
16E-/	.	.	.	16a-\	.
16G/	8GG\	.	8ee-/	16e-\	.
16E-/JJ	.	.	.	16b-\JJ	.
16F/LL	8FF\)	.	8aa-/	16a-\LL	.
16AA-/	.	.	.	16cc\	.
16F/	8FF\J	.	8bb-/J)	16a-\	.
16AA-/JJ	.	.	.	16ddn\JJ	.
*v	*v	*	*	*	*
=12	=12	=12	=12	=12
(16EE-/LL	.	(4.ee-/	16g\LL	.
16GG/	.	.	16b-\	.
16BB-/	.	.	16g\	.
16E-/JJ	.	.	16b-\JJ	.
16G\LL	.	.	16g\LL	.
16B-\	.	.	16b-\	.
16G\	.	8een/	16g\	.
16B-\JJ)	.	.	16b-\JJ	.
=13	=13	=13	=13	=13
(16DD-/LL	.	4ff/)	16g\LL	.
16GG/	.	.	16b-\	.
16BB-/	.	.	16g\	.
16D-/JJ	.	.	16b-\JJ	.
16G\LL	.	(8.b-/L	16g\LL	.
16B-\	.	.	16e-\	.
16G\	.	.	16g\	.
16D-\JJ)	.	32cc/LL	16e-\JJ	.
.	.	32dd-/JJJ)	.	.
=14	=14	=14	=14	=14
*^	*	*	*	*
16C/LL	8C\L	.	(4ee-/	16a-\LL	.
16E-/	.	.	.	16e-\	.
16C/	8C\J	.	.	16a-\	.
16E-/JJ	.	.	.	16e-\JJ	.
16C/LL	(4FF\	.	4an/	16e-\LL	.
16F/	.	.	.	16c\	.
16C/	.	.	.	16e-\	.
16F/JJ	.	.	.	16c\JJ	.
=15	=15	=15	=15	=15	=15
16D-/LL	4BB-\	.	4dd-/)	16f\LL	.
16F/	.	.	.	16d-\	.
16D-/	.	.	.	16f\	.
16F/JJ	.	.	.	16d-\JJ	.
16BB-/LL	4EE-\)	.	(16cc'/LL	16d-\LL	.
16E-/	.	.	16b-'/	16d-\	.
16BB-/	.	.	16a-'/	16d-\	.
16E-/JJ	.	.	16g'/JJ)	16d-\JJ	.
=16	=16	=16	=16	=16	=16
16r	4.AA-\	.	(4b-/	16d-\LL	.
16E-/LL	.	.	.	16e-\	.
16G/	.	.	.	16d-\	.
16E-/JJ	.	.	.	16e-\JJ	.
8A-/	.	.	8a-/)	8c\	.
8r	8r	.	16.r	8r	.
.	.	.	32c/	.	.
*v	*v	*	*	*	*
*	*	*v	*v	*
=17	=17	=17	=17
16r	.	[4cc\	.
16c\LL	.	.	.
16c\	.	.	.
16c\JJ	.	.	.
16c\LL	.	(16cc\LL]	.
16c\	.	16aa-\	.
16c\	.	16gg\	.
16c\JJ	.	16ff\JJ)	.
=18	=18	=18	=18
16En\ 16G\ 16c\LL	.	[4ccc\	.
16E\ 16G\ 16c\	.	.	.
16E\ 16G\ 16c\	.	.	.
16E\ 16G\ 16c\JJ	.	.	.
16F\ 16A-\ 16c\LL	.	(16ccc\LL]	.
16F\ 16A-\ 16c\	.	16aa-\	.
16F\ 16A-\ 16c\	.	16gg\	.
16F\ 16A-\ 16c\JJ	.	16ff\JJ)	.
=19	=19	=19	=19
16G\ 16B-\ 16en\LL	.	[4cc\	.
16G\ 16B-\ 16e\	.	.	.
16G\ 16B-\ 16e\	.	.	.
16G\ 16B-\ 16e\JJ	.	.	.
16A-\ 16c\ 16f\LL	.	(16cc\LL]	.
16A-\ 16c\ 16f\	.	16aa-\	.
16A-\ 16c\ 16f\	.	16gg\	.
16A-\ 16c\ 16f\JJ	.	16ff\JJ)	.
*clefG2	*clefG2	*	*
=20	=20	=20	=20
16B-/ 16f/ 16a-/LL	.	(8ee-\L	.
16B-/ 16f/ 16a-/	.	.	.
16B-/ 16f/ 16a-/	.	[8ddn\J)	.
16B-/ 16f/ 16a-/JJ	.	.	.
16Bn/ 16f/ 16a-/LL	.	(8dd\L]	.
16B/ 16f/ 16a-/	.	.	.
16B/ 16dn/ 16a-/	.	16.ff\L	.
16B/ 16d/ 16a-/JJ	.	.	.
.	.	32ee-\JJk)	.
=21	=21	=21	=21
16c/ 16e-/ 16g/LL	.	4ee-\	.
16c/ 16e-/ 16g/	.	.	.
16c/ 16e-/ 16g/	.	.	.
16c/ 16e-/ 16g/JJ	.	.	.
16A-/ 16e-/LL	.	(8.f/L	.
16A-/ 16e-/	.	.	.
16A-/ 16e-/	.	.	.
16A-/ 16e-/JJ	.	32a-/LL	.
.	.	32cc/JJJ)	.
=22	=22	=22	=22
16r	.	32cc\LLL	.
.	.	32b-\J	.
16B-/ 16e-/ 16g/LL	.	([16gg\JJ	.
16B-/ 16e-/ 16g/	.	16gg\LL]	.
16B-/ 16e-/ 16g/JJ	.	32ff\L	.
.	.	32ee-\JJJ	.
16r	.	32ddn/LLL	.
.	.	32cc/	.
*clefF4	*clefF4	*	*
16BB-\ 16Dn\ 16A-\LL	.	32b-/	.
.	.	32an/	.
16BB-\ 16D\ 16A-\	.	32cc/	.
.	.	32b-/	.
16BB-\ 16D\ 16A-\JJ	.	32a-/	.
.	.	32f/JJJ)	.
=23	=23	=23	=23
8E-\ 8G\	.	8e-/	.
8r	.	16r	.
*	*	*clefF4	*clefF4
.	.	(16B-\	.
4r	.	16G\LL	.
.	.	16B-\	.
.	.	16G\	.
.	.	16E-\JJ)	.
=24	=24	=24	=24
*	*	*^	*
2BBB-/	.	(8F/ 8A-/L	16E-\LL	<
.	.	.	16Dn\)	.
.	.	8F/ 8A-/	(16D\	.
.	.	.	16C\JJ)	.
.	.	8F/ 8A-/	(16C\LL	.
.	.	.	16BBn\)	.
.	.	8D/ 8F/ 8A-/J	(16BB\	.
.	.	.	16BB-\JJ)	.
=25	=25	=25	=25	=25
8EE-/	.	4r	8BB-\ 8E-\ 8G\	.
16r	.	.	8r	.
(16BB-/	.	.	.	.
16GG/LL	.	8r	8r	.
16BB-/	.	.	.	.
16GG/	.	(16.B-/LL	8r	.
16EE-/JJ)	.	.	.	.
.	.	32e-/JJk)	.	<
=26	=26	=26	=26	=26
4BBB-/	.	(16e-/LL	4F\ 4A-\	.
.	.	16dn/)	.	.
.	.	(16d/	.	.
.	.	16c/JJ)	.	.
4BB-/	.	(16c/LL	4F\ 4A-\	.
.	.	16c-/)	.	.
.	.	(16c-/	.	.
.	.	16B-/JJ)	.	.
=27	=27	=27	=27	=27
[2EE-/	.	[2G/ [2B-/	(16F\LL	.
.	.	.	16F-\)	.
.	.	.	(16F-\	.
.	.	.	16E-\JJ)	.
.	.	.	(16E-\LL	.
.	.	.	16Dn\)	.
.	.	.	(16D\	.
.	.	.	16E-\JJ)	.
=28	=28	=28	=28	=28
2EE-/]	.	2G/] 2B-/]	(16E-\LL	.
.	.	.	16F-\)	.
.	.	.	(16F-\	.
.	.	.	16E-\JJ)	.
.	.	.	(16E-\LL	pp
.	.	.	16Dn\)	.
.	.	.	(16D\	.
.	.	.	16D-\JJ)	.
=29	=29	=29	=29	=29
4AAA-/ (4AA-/	.	4A-/ (4c/	16C\LL	p
.	.	.	16E-\	.
.	.	.	16A-\	.
.	.	.	16E-\JJ	.
4D-\	.	4B-/	16G\LL	.
.	.	.	16E-\	.
.	.	.	16G\	.
.	.	.	16E-\JJ	.
=30	=30	=30	=30	=30
4C/	.	4.e-/	16A-\LL	.
.	.	.	16E-\	.
.	.	.	16A-\	.
.	.	.	16E-\JJ	.
4GG/)	.	.	16B-\LL	.
.	.	.	16E-\	.
.	.	8d-/)	16B-\	.
.	.	.	16E-\JJ	.
=31	=31	=31	=31	=31
(8AA-/L	.	(8c/L	16A-\LL	.
.	.	.	16E-\	.
8GG/	.	8e-/	16B-\	.
.	.	.	16E-\JJ	.
8FF/	.	8a-/	16c\LL	.
.	.	.	16A-\	.
8F/J)	.	8b-/J)	16dn\	.
.	.	.	16A-\JJ	.
=32	=32	=32	=32	=32
(4E-\	.	(4.e-/	16G\LL	.
.	.	.	16B-\	.
.	.	.	16G\	.
.	.	.	16B-\JJ	.
4EE-/	.	.	16G\LL	.
.	.	.	16B-\	.
.	.	8en/	16G\	.
.	.	.	16B-\JJ	.
=33	=33	=33	=33	=33
4DD-/	.	4f/)	16G\LL	.
.	.	.	16B-\	.
.	.	.	16G\	.
.	.	.	16B-\JJ	.
4D-\)	.	(8.B-/L	16G\LL	.
.	.	.	16E-\	.
.	.	.	16G\	.
.	.	32c/LL	16E-\JJ	.
.	.	32d-/JJJ)	.	.
=34	=34	=34	=34	=34
(4C/	.	(4e-/	16A-\LL	.
.	.	.	16E-\	.
.	.	.	16A-\	.
.	.	.	16E-\JJ	.
4FF/	.	4An/	16E-\LL	.
.	.	.	16C\	.
.	.	.	16E-\	.
.	.	.	16C\JJ	.
=35	=35	=35	=35	=35
4BBB-/	.	4d-/)	16F\LL	.
.	.	.	16D-\	.
.	.	.	16F\	.
.	.	.	16D-\JJ	.
4EE-/)	.	(16c'/LL	16D-\LL	.
.	.	16B-'/	16D-\	.
.	.	16A-'/	16D-\	.
.	.	16G'/JJ)	16D-\JJ	.
=36	=36	=36	=36	=36
8AAA-/L	.	4G/ (4B-/	16D-\LL	.
.	.	.	16E-\	.
8AA-/J	.	.	16D-\	.
.	.	.	16E-\JJ	.
8AAA-/	.	8A-/L)	8C\	.
*	*	*v	*v	*
*	*	*clefG2	*clefG2
*	*	*^	*
8r	.	8e-/J	8r	.
=37	=37	=37	=37	=37
4AA-\ 4A-\	.	(8a-/L	24c-\ 24e-\LL	pp
.	.	.	24c-\ 24e-\	.
.	.	.	24c-\ 24e-\JJ	.
.	.	8cc-/	24c-\ 24e-\LL	.
.	.	.	24c-\ 24e-\	.
.	.	.	24c-\ 24e-\JJ	.
4r	.	8b-/	24c-\ 24e-\LL	.
.	.	.	24c-\ 24e-\	.
.	.	.	24c-\ 24e-\JJ	.
.	.	8a-/J)	24c-\ 24e-\LL	.
.	.	.	24c-\ 24e-\	.
.	.	.	24c-\ 24e-\JJ	.
=38	=38	=38	=38	=38
[8B-\	.	(8g/L	24d-\ 24e-\LL	.
.	.	.	24d-\ 24e-\	.
.	.	.	24d-\ 24e-\JJ	.
24B-\LL]	.	8dd-/J)	24d-\ 24e-\LL	.
(24B-\	.	.	24d-\ 24e-\	.
24An\JJ	.	.	24d-\ 24e-\JJ	.
24B-'\LL)	.	4r	24d-\ 24e-\LL	.
(24B-'\	.	.	24d-\ 24e-\	.
24A-'\JJ)	.	.	24d-\ 24e-\JJ	.
(24G'\LL	.	.	24d-\ 24e-\LL	.
24F'\	.	.	24d-\ 24e-\	.
24E-'\JJ)	.	.	24d-\ 24e-\JJ	.
=39	=39	=39	=39	=39
8A-\	.	(8a-/L	24c-\ 24e-\LL	.
.	.	.	24c-\ 24e-\	.
.	.	.	24c-\ 24e-\JJ	.
8r	.	8cc-/	24c-\ 24e-\LL	.
.	.	.	24c-\ 24e-\	.
.	.	.	24c-\ 24e-\JJ	.
4r	.	8b-/	24c-\ 24e-\LL	.
.	.	.	24c-\ 24e-\	.
.	.	.	24c-\ 24e-\JJ	.
.	.	8a-/J)	24c-\ 24e-\LL	.
.	.	.	24c-\ 24e-\	.
.	.	.	24c-\ 24e-\JJ	.
=40	=40	=40	=40	=40
[8E-\	.	(8a-/L	24B-\ 24e-\LL	.
.	.	.	24B-\ 24e-\	.
.	.	.	24B-\ 24e-\JJ	.
24E-\LL]	.	8g/J)	24B-\ 24e-\LL	.
(24E-\	.	.	24B-\ 24e-\	.
24Dn\JJ	.	.	24B-\ 24e-\JJ	.
24E-'\LL)	.	4r	24G\ 24B-\ 24e-\LL	.
(24F-'\	.	.	24G\ 24B-\ 24e-\	.
24E-'\JJ)	.	.	24G\ 24B-\ 24e-\JJ	.
(24D-'/LL	.	.	24G\ 24B-\ 24e-\LL	.
24C-'/	.	.	24G\ 24B-\ 24e-\	.
24BB-'/JJ)	.	.	24G\ 24B-\ 24e-\JJ	.
=41	=41	=41	=41	=41
8AA-/	<	(8a-/L	24c-\ 24e-\LL	.
.	.	.	24c-\ 24e-\	.
.	.	.	24c-\ 24e-\JJ	.
8r	.	8cc-/	24c-\ 24e-\LL	.
.	.	.	24c-\ 24e-\	.
.	.	.	24c-\ 24e-\JJ	.
4r	.	8b-/	24c-\ 24e-\LL	.
.	.	.	24c-\ 24e-\	.
.	.	.	24c-\ 24e-\JJ	.
.	.	8a-/J)	24c-\ 24e-\LL	.
.	.	.	24c-\ 24e-\	.
.	.	.	24c-\ 24e-\JJ	.
*	*	*v	*v	*
=42	=42	=42	=42
24AAn/ 24BBn/ 24D#/ 24F#/LL	.	8f#\ [8ff#\	.
24AA/ 24BB/ 24D#/ 24F#/	.	.	.
24AA/ 24BB/ 24D#/ 24F#/JJ	.	.	.
24AA/ 24BB/ 24D#/ 24F#/LL	.	24ff#\LL]	.
24AA/ 24BB/ 24D#/ 24F#/	.	24dd#'\	.
24AA/ 24BB/ 24D#/ 24F#/JJ	.	24bn'\JJ	.
24GG#/ 24BB/ 24En/ 24G#/LL	.	8b\ [8bbn\	.
24GG#/ 24BB/ 24E/ 24G#/	.	.	.
24GG#/ 24BB/ 24E/ 24G#/JJ	.	.	.
24GG#/ 24BB/ 24E/ 24G#/LL	.	24bb\LL]	.
24GG#/ 24BB/ 24E/ 24G#/	.	24gg#'\	.
24GG#/ 24BB/ 24E/ 24G#/JJ	.	24een'\JJ	.
=43	=43	=43	=43
24C#\ 24En\ 24F#\ 24A#\LL	.	8een\ [8eeen\	.
24C#\ 24E\ 24F#\ 24A#\	.	.	.
24C#\ 24E\ 24F#\ 24A#\JJ	.	.	.
24C#\ 24E\ 24F#\ 24A#\LL	.	24eee\LL]	.
24C#\ 24E\ 24F#\ 24A#\	.	24ccc#'\	.
24C#\ 24E\ 24F#\ 24A#\JJ	.	24aa#'\JJ	.
24BBn\ 24E\ 24G#\ 24Bn\LL	.	8bn'\ 8bbn'\L	.
24BB\ 24E\ 24G#\ 24B\	.	.	.
24BB\ 24E\ 24G#\ 24B\JJ	.	.	.
*	*	*clefF4	*clefF4
24BBBn/ 24BB/LL	.	8F#'\ 8An'\ 8Bn'\ 8d#'\J	.
24BBB/ 24BB/	.	.	.
24BBB/ 24BB/JJ	.	.	.
=44	=44	=44	=44
8EEn/ 8En/	.	24G#\ 24Bn\ 24en\LL	.
.	.	24G#\ 24B\	.
.	.	24G#\ 24B\JJ	.
8r	.	24G#\ 24B\LL	.
.	.	24G#\ 24B\	.
.	.	24G#\ 24B\JJ	.
4r	.	24G#\ 24B\LL	.
.	.	24G#\ 24B\	>
.	.	24G#\ 24B\JJ	.
.	.	24G#\ 24B\LL	.
.	.	24G#\ 24B\	.
.	.	24G#\ 24B\JJ	.
=45	=45	=45	=45
*	*	*^	*
4EEn/ 4En/	.	(8en/L	24G#\ 24Bn\LL	pp
.	.	.	24G#\ 24B\	.
.	.	.	24G#\ 24B\JJ	.
.	.	8g#/	24G#\ 24B\LL	.
.	.	.	24G#\ 24B\	.
.	.	.	24G#\ 24B\JJ	.
4r	.	8f#/	24G#\ 24B\LL	.
.	.	.	24G#\ 24B\	.
.	.	.	24G#\ 24B\JJ	.
.	.	8e/J)	24G#\ 24B\LL	.
.	.	.	24G#\ 24B\	.
.	.	.	24G#\ 24B\JJ	.
=46	=46	=46	=46	=46
[8F#\	.	(8d#/L	24An\ 24Bn\LL	.
.	.	.	24A\ 24B\	.
.	.	.	24A\ 24B\JJ	.
24F#\LL]	.	8an/J)	24A\ 24B\LL	.
(24F#\	.	.	24A\ 24B\	.
24E#\JJ	.	.	24A\ 24B\JJ	.
24F#'\LL)	.	4r	24A\ 24B\LL	.
(24F#'\	.	.	24A\ 24B\	.
24En'\JJ)	.	.	24A\ 24B\JJ	.
(24D#'/LL	.	.	24A\ 24B\LL	.
24C#'/	.	.	24A\ 24B\	.
24BBn'/JJ)	.	.	24A\ 24B\JJ	.
=47	=47	=47	=47	=47
8En\	.	(8en/L	24G#\ 24Bn\LL	.
.	.	.	24G#\ 24B\	.
.	.	.	24G#\ 24B\JJ	.
8r	.	8g#/	24G#\ 24B\LL	.
.	.	.	24G#\ 24B\	.
.	.	.	24G#\ 24B\JJ	.
4r	.	8e/	24G#\ 24B\LL	.
.	.	.	24G#\ 24B\	.
.	.	.	24G#\ 24B\JJ	.
.	.	8d#/J)	24G#\ 24B\LL	.
.	.	.	24G#\ 24B\	.
.	.	.	24G#\ 24B\JJ	.
=48	=48	=48	=48	=48
24r	.	4dn/	24Dn\ 24A-\ 24c-\LL	.
24FFFn'/LL	.	.	24D\ 24A-\ 24c-\	.
24AAA-'/JJ	.	.	24D\ 24A-\ 24c-\JJ	.
24CC-'/LL	.	.	24D\ 24A-\ 24c-\LL	.
24DDn'/	.	.	24D\ 24A-\ 24c-\	.
24FFn'/JJ	.	.	24D\ 24A-\ 24c-\JJ	.
8AA-/	.	8r	24D\ 24A-\ 24c-\LL	.
.	.	.	24D\ 24A-\ 24c-\	.
.	.	.	24D\ 24A-\ 24c-\JJ	.
8r	.	8d/	24D\ 24A-\ 24c-\LL	.
.	.	.	24D\ 24A-\ 24c-\	.
.	.	.	24D\ 24A-\ 24c-\JJ	.
=49	=49	=49	=49	=49
24r	.	4dn/	24Dn\ 24A-\ 24c-\LL	.
24FFF'/LL	.	.	24D\ 24A-\ 24c-\	.
24AAA-'/JJ	.	.	24D\ 24A-\ 24c-\JJ	.
24CC-'/LL	.	.	24D\ 24A-\ 24c-\LL	.
24DDn'/	.	.	24D\ 24A-\ 24c-\	.
24FF'/JJ	.	.	24D\ 24A-\ 24c-\JJ	.
8AA-/	.	8r	24D\ 24A-\ 24c-\LL	.
.	.	.	24D\ 24A-\ 24c-\	.
.	.	.	24D\ 24A-\ 24c-\JJ	.
8r	.	8d/	24D\ 24A-\ 24c-\LL	.
.	.	.	24D\ 24A-\ 24c-\	.
.	.	.	24D\ 24A-\ 24c-\JJ	.
=50	=50	=50	=50	=50
24r	.	4.d-/	24D-\ 24A-\ 24B-\LL	<
24FF-'/LL	.	.	24D-\ 24A-\ 24B-\	.
24AA-'/JJ	.	.	24D-\ 24A-\ 24B-\JJ	.
8BB-'/	.	.	24D-\ 24A-\ 24B-\LL	.
.	.	.	24D-\ 24A-\ 24B-\	.
.	.	.	24D-\ 24A-\ 24B-\JJ	.
24r	.	.	24D-\ 24G\ 24B-\LL	.
24EE-'/LL	.	.	24D-\ 24G\ 24B-\	.
24GG'/JJ	.	.	24D-\ 24G\ 24B-\JJ	.
8BB-'/	.	8d-/	24D-\ 24E-\ 24G\ 24B-\LL	.
.	.	.	24D-\ 24E-\ 24G\ 24B-\	.
.	.	.	24D-\ 24E-\ 24G\ 24B-\JJ	.
=51	=51	=51	=51	=51
4AAA-/ (4AA-/	.	(4cn/	24C\LL	p
.	.	.	24E-\	.
.	.	.	24E-\JJ	.
.	.	.	24A-\LL	.
.	.	.	24E-\	.
.	.	.	24E-\JJ	.
4D-\	.	4B-/	24G\LL	.
.	.	.	24E-\	.
.	.	.	24E-\JJ	.
.	.	.	24G\LL	.
.	.	.	24E-\	.
.	.	.	24E-\JJ	.
=52	=52	=52	=52	=52
4C/	.	4.e-/	24A-\LL	.
.	.	.	24E-\	.
.	.	.	24E-\JJ	.
.	.	.	24A-\LL	.
.	.	.	24E-\	.
.	.	.	24E-\JJ	.
4GG/)	.	.	24B-\LL	.
.	.	.	24E-\	.
.	.	.	24E-\JJ	.
.	.	8d-/)	24B-\LL	.
.	.	.	24E-\	.
.	.	.	24E-\JJ	.
=53	=53	=53	=53	=53
(8AA-/L	.	(8c/L	24A-\LL	.
.	.	.	24E-\	.
.	.	.	24E-\JJ	.
8GG/	.	8e-/	24B-\LL	.
.	.	.	24E-\	.
.	.	.	24E-\JJ	.
8FF/	.	8a-/	24c\LL	.
.	.	.	24A-\	.
.	.	.	24A-\JJ	.
8F/J)	.	8b-/J)	24dn\LL	.
.	.	.	24A-\	.
.	.	.	24A-\JJ	.
=54	=54	=54	=54	=54
(4E-\	.	(4.e-/	24G\LL	.
.	.	.	24B-\	.
.	.	.	24B-\JJ	.
.	.	.	24G\LL	.
.	.	.	24B-\	.
.	.	.	24B-\JJ	.
4EE-/	.	.	24G\LL	.
.	.	.	24B-\	.
.	.	.	24B-\JJ	.
.	.	8en/	24G\LL	.
.	.	.	24B-\	.
.	.	.	24B-\JJ	.
=55	=55	=55	=55	=55
4DD-/	.	4f/)	24G\LL	.
.	.	.	24B-\	.
.	.	.	24B-\JJ	.
.	.	.	(24G\LL	.
.	.	.	24B-\)	.
.	.	.	24B-\JJ	.
4D-\)	.	8.B-/L	(24G\LL	.
.	.	.	24E-\)	.
.	.	.	(24E-\JJ	.
.	.	.	24G\LL	.
.	.	.	24E-\)	.
.	.	32c/LL	.	.
.	.	.	24E-\JJ	.
.	.	32d-/JJJ	.	.
=56	=56	=56	=56	=56
(4C/	.	(4e-/	24A-\LL	.
.	.	.	24E-\	.
.	.	.	24E-\JJ	.
.	.	.	24A-\LL	.
.	.	.	24E-\	.
.	.	.	24E-\JJ	.
4FF/	.	4An/	24E-\LL	.
.	.	.	24C\	.
.	.	.	24C\JJ	.
.	.	.	24E-\LL	.
.	.	.	24C\	.
.	.	.	24C\JJ	.
=57	=57	=57	=57	=57
4BBB-/	.	4d-/)	24F\LL	.
.	.	.	24D-\	.
.	.	.	(24D-\JJ	.
.	.	.	24F\LL	.
.	.	.	24D-\)	.
.	.	.	(24D-\JJ	.
4EE-/)	.	24d-/LL	24G\LL	.
.	.	24c/	24D-\)	.
.	.	24B-/JJ	24D-\JJ	.
.	.	(24B-/LL	[24D-\LL	.
.	.	24A-/)	24D-\]	.
.	.	24G/JJ	24D-\JJ	.
=58	=58	=58	=58	=58
8AAA-/L	.	4G/ (4B-/	24D-\LL	.
.	.	.	24E-\	.
.	.	.	24E-\JJ	.
8AA-/J	.	.	24D-\LL	.
.	.	.	24E-\	.
.	.	.	24E-\JJ	.
8AAA-/	.	8A-/)	24C'\LL	.
.	.	.	24E-'\	.
.	.	.	24A-'\JJ	.
*	*	*v	*v	*
*	*	*clefG2	*clefG2
*	*	*^	*
8r	.	24c'/LL	8r	.
.	.	24e-'/	.	.
.	.	24a-'/JJ	.	.
=59	=59	=59	=59	=59
*^	*	*	*	*
(24A-/LL	4AA-\	.	(4cc/	24c\LL	.
24E-/)	.	.	.	24e-\	.
24E-/JJ	.	.	.	24e-\JJ	.
(24A-/LL	.	.	.	24c\LL	.
24E-/)	.	.	.	24e-\	.
24E-/JJ	.	.	.	24e-\JJ	.
(24G/LL	4D-\	.	4b-/	24B-\LL	.
24E-/)	.	.	.	24e-\	.
24E-/JJ	.	.	.	24e-\JJ	.
(24G/LL	.	.	.	24B-\LL	.
24E-/)	.	.	.	24e-\	.
24E-/JJ	.	.	.	24e-\JJ	.
=60	=60	=60	=60	=60	=60
(24A-/LL	4C\	.	4.ee-/	24e-\LL	.
24E-/)	.	.	.	24a-\	.
24E-/JJ	.	.	.	24a-\JJ	.
(24A-/LL	.	.	.	24e-\LL	.
24E-/)	.	.	.	24a-\	.
24E-/JJ	.	.	.	24a-\JJ	.
(24G/LL	4GG\	.	.	24e-\LL	.
24E-/)	.	.	.	24b-\	.
24E-/JJ	.	.	.	24b-\JJ	.
(24G/LL	.	.	8dd-/)	24e-\LL	.
24E-/)	.	.	.	24b-\	.
24E-/JJ	.	.	.	24b-\JJ	.
=61	=61	=61	=61	=61	=61
(24A-/LL	8AA-\L	.	(8cc/L	24e-\LL	.
24E-/)	.	.	.	24a-\	.
24E-/JJ	.	.	.	24a-\JJ	.
(24G/LL	8GG\	.	8ee-/	24e-\LL	.
24E-/)	.	.	.	24b-\	.
24E-/JJ	.	.	.	24b-\JJ	.
(24F/LL	8FF\	.	8aa-/	24a-\LL	.
24AA-/)	.	.	.	24cc\	.
24AA-/JJ	.	.	.	24cc\JJ	.
(24F/LL	8FF\J	.	8bb-/J)	(24a-\LL	.
24AA-/)	.	.	.	24ddn\)	.
24AA-/JJ	.	.	.	24dd\JJ	.
*v	*v	*	*	*	*
=62	=62	=62	=62	=62
24EE-'/LL	.	4.ee-/	(24g\LL	.
24GG'/	.	.	24b-\)	.
24BB-'/JJ	.	.	24b-\JJ	.
24E-'\LL	.	.	(24g\LL	.
24G'\	.	.	24b-\)	.
24B-'\JJ	.	.	24b-\JJ	.
4e-\	.	.	(24g\LL	.
.	.	.	24b-\)	.
.	.	.	24b-\JJ	.
.	.	8een/	(24g\LL	.
.	.	.	24b-\)	.
.	.	.	24b-\JJ	.
=63	=63	=63	=63	=63
24DD-'/LL	.	4ff/	(24g\LL	.
24GG'/	.	.	24b-\)	.
24BB-'/JJ	.	.	24b-\JJ	.
24D-'\LL	.	.	(24g\LL	.
24G'\	.	.	24b-\)	.
24B-'\JJ	.	.	24b-\JJ	.
4d-\	.	(8.b-/L	24g\LL	.
.	.	.	24e-\	.
.	.	.	24e-\JJ	.
.	.	.	24g\LL	.
.	.	.	24e-\	.
.	.	32cc/LL	.	.
.	.	.	24e-\JJ	.
.	.	32dd-/JJJ)	.	.
=64	=64	=64	=64	=64
(4c\	.	4ee-/	(24a-\LL	.
.	.	.	24e-\)	.
.	.	.	(24e-\JJ	.
.	.	.	24a-\LL	.
.	.	.	24e-\)	.
.	.	.	24e-\JJ	.
4F\	.	4an/	(24e-\LL	.
.	.	.	24c\)	.
.	.	.	24c\JJ	.
.	.	.	(24e-\LL	.
.	.	.	24c\)	.
.	.	.	24c\JJ	.
=65	=65	=65	=65	=65
*^	*	*	*	*
4BB-/)	4r	.	4dd-/	(24f\LL	.
.	.	.	.	24d-\)	.
.	.	.	.	(24d-\JJ	.
.	.	.	.	24f\LL	.
.	.	.	.	24d-\)	.
.	.	.	.	(24d-\JJ	.
(24BB-/LL	8EE-\L	.	24dd-/LL	24g\LL	.
24E-/)	.	.	24cc/	24d-\)	.
24E-/JJ	.	.	24b-/JJ	24d-\JJ	.
24EE-/LL	(8EE-\J	.	(24b-/LL	24d-\LL	.
24E-/)	.	.	24a-/)	24d-\	.
24E-/JJ	.	.	24g/JJ	24d-\JJ	.
*v	*v	*	*	*	*
*	*	*v	*v	*
=66	=66	=66	=66
24AA-\LL	.	8c/ 8a-/	pp
(24E-'\	.	.	.
24E-'\JJ)	.	.	.
(24E-'\LL	.	8r	.
24E-'\	.	.	.
24E-'\JJ)	.	.	.
24E-\LL	.	8r	.
24E-\	.	.	.
24E-\JJ	.	.	.
24E-\LL	.	(16.ee-\LL	.
24E-\	.	.	.
24E-\JJ	.	.	.
.	.	32een\JJk)	.
=67	=67	=67	=67
24EE-/ 24D-/ 24E-/LL	.	[8ff\	.
24EE-/ 24D-/ 24E-/	.	.	.
24EE-/ 24D-/ 24E-/JJ	.	.	.
24EE-/ 24D-/ 24E-/LL	.	(24ff\LL]	.
24EE-/ 24D-/ 24E-/	.	24ee-\)	.
24EE-/ 24D-/ 24E-/JJ	.	(24dd-'\JJ	.
24EE-/ 24D-/ 24E-/LL	.	24cc'\LL	.
24EE-/ 24D-/ 24E-/	.	24b-'\	.
24EE-/ 24D-/ 24E-/JJ	.	24a-'\JJ)	.
24EE-/ 24D-/ 24E-/LL	.	(32g/LLL	.
.	.	32dd-/	.
24EE-/ 24D-/ 24E-/	.	.	.
.	.	32b-/	.
24EE-/ 24D-/ 24E-/JJ	.	.	.
.	.	32g/JJJ)	.
=68	=68	=68	=68
24AA-\ 24C\ 24E-\LL	.	(16.a-\LL	.
(24E-'\	.	.	.
24E-'\JJ)	.	.	.
.	.	32cc\JJk	.
(24E-'\LL	.	8e-/)	.
24E-'\	.	.	.
24E-'\JJ)	.	.	.
24E-\LL	.	8r	.
24E-\	.	.	.
24E-\JJ	.	.	.
24E-\LL	.	16.ee-\ (16.eee-\LL	.
24E-\	.	.	.
24E-\JJ	.	.	.
.	.	32een\ 32eeen\JJk)	.
=69	=69	=69	=69
24EE-/ 24D-/ 24E-/LL	.	[8ff\ [8fff\	.
24EE-/ 24D-/ 24E-/	.	.	.
24EE-/ 24D-/ 24E-/JJ	.	.	.
24EE-/ 24D-/ 24E-/LL	.	24ff\] (24fff\LL]	.
24EE-/ 24D-/ 24E-/	.	24ee-\ 24eee-\)	.
24EE-/ 24D-/ 24E-/JJ	.	24dd-'\ (24ddd-'\JJ	.
24EE-/ 24D-/ 24E-/LL	.	24cc'\ 24ccc'\LL	.
24EE-/ 24D-/ 24E-/	.	24b-'\ 24bb-'\	.
24EE-/ 24D-/ 24E-/JJ	.	24a-'\ 24aa-'\JJ)	.
24EE-/ 24D-/ 24E-/LL	.	24g\ (24gg\LL	.
24EE-/ 24D-/ 24E-/	.	24dd-\ 24ddd-\	.
24EE-/ 24D-/ 24E-/JJ	.	24g\ 24gg\JJ)	.
=70	=70	=70	=70
8AA-/ 8C/ 8E-/	.	8a-\ 8aa-\	.
8r	.	8r	.
*clefG2	*clefG2	*	*
!	!	!(ee-q/	!.
(4e-/ 4g/	.	(24dd-\LL)	.
.	.	24cc\	.
.	.	24dd-\JJ)	.
.	.	(24ff\LL	.
.	.	24ee-\)	.
.	.	24dd-'\JJ	.
=71	=71	=71	=71
*	*	*^	*
8A-/) 8a-/	.	4r	8cc\	.
8r	.	.	8r	.
*clefF4	*clefF4	*	*	*
*	*	*v	*v	*
!	!	!(ccq/	!.
*	*	*^	*
4E-\ (4d-\	.	24b-/LL	(4g\)	.
.	.	24an/	.	.
.	.	24b-/JJ)	.	.
.	.	(24dd-/LL	.	.
.	.	24cc/)	.	.
.	.	24b-'/JJ	.	.
=72	=72	=72	=72	=72
8A-\ 8c\)	.	8a-/	4r	.
8r	.	8r	.	.
*	*	*clefF4	*clefF4	*
!	!	!cq/	!.	!.
(4EE-/ 4D-/	.	24B-/LL	(4G\	.
.	.	24An/	.	.
.	.	24B-/JJ)	.	.
.	.	(24d-/LL	.	.
.	.	24c/)	.	.
.	.	24B-'/JJ	.	.
*	*	*v	*v	*
=73	=73	=73	=73
16AA-/) 16C/	.	16A-\	pp
16r	.	16r	.
16AAA-/	.	16C\ 16E-\ 16A-\	.
16r	.	16r	.
4AAA-;/	.	4AA-;\ 4C;\ 4A-;\	.
==	==	==	==
*-	*-	*-	*-
!!!ENC: Craig Stuart Sapp
!!!END: 2008/02/25/
